X: 4
M:4/4
L:1/8
K:D
sfgs|af{a}sges dfed|scesAA sABsAG|FAdf .g.e.c.e|(3efe (3dcB A2 sfgs|
afge dfed|ceAA sABsAG|FAdf gece|d2 dd d2:|
|:cd|seAsAA fAgA|seAsAA f2 sefs|sgfgse dfec|sdcdsB A2 sAGs|

